X:1
T:Adagio
T:Clarinet Concerto in A Major K. 622, 2nd Movement (Solo Transcribed for Flute)
T:W. A. Mozart transcr. K. Williams
%%score ( 1 2 )
L:1/8
Q:1/4=50
M:3/4
K:D
V:1 treble nm="Flute" snm="Fl."
V:2 treble 
V:1
 (A2 d3 f) | (fe) d2 z2 | (A3 dfa) | (ag) f2 z2 | e3 (afa) | e3 (aBf) | A4{c} (B>A) | A2 z2 z2 | %8
 (A2 d3 f) | (fe) d2 z2 | (A3 dfa) | (ag) f2 z2 | e3 (afa) | e3 (aBf) | A4{c} (B>A) | A2 z4 | %16
 (f3 e dc) | B2 z2 z2 | (g3 f ed) | c2 z2 z2 | (a3 g fe) | (dg) (g3 f) | (f/e/g/e/) d2{f} (e>d) | %23
 d2 z2 z2 | (f3 edc) | B2 z2 z2 | (g3 fed) | c2 z2 z2 | (a3 g fe) | (dg) (g3 f) | %30
 (e/b/g/e/) d2{f} (e>d) | d2 z4 | f>d (a3 f/d/) | (c2 e2) z2 | %34
 d'/4b/4^g/4e/4d/4B/4^G/4E/4 D.f .e.d | (B>^B) c2 z2 | e3 (a/^g/ f/e/d/c/) | (c/d/^A/B/) B2 z2 | %38
 .c>.d .e>.f gc | (e2 d2) z2 | E2 b2- (b/^g/e/d/) | (^B/c/d/^d/ e/f/^g/a/ ^e/f/=d/=B/) | %42
 A3 (^A Be) | (d3/2e/4d/4) c2 z2 | E2- E/(F/4^G/4).A/.G/ (F/E/d/c/) | (^A2 B2) z2 | %46
 (3(c/B/A/(3B/c/d/) (3(e/d/c/(3d/e/f/) g/a/b/c/ | (e2 d2) z2 | .d4 (3^G/F/E/(3d/c/B/ | .A z e4 | %50
 .B z f4 | (3(E/^E/F/(3=G/^G/A/) (3(^A/B/^B/(3c/d/^d/) (3(=e/=e/^f/(3=g/^g/=a/) | TB4- B3/2A/4B/4 | %53
 A2 z2 z2 | A2- A/4C/4E/4A/4c/4e/4a/4c'/4 (A/4B/4c/4d/4e/4f/4^g/4a/4) | ^g2 z2 z2 | %56
 B2- B/4D/4^G/4B/4d/4e/4^g/4b/4 (G/4A/4B/4c/4d/4e/4f/4^g/4) | =g2 z4 | g6 | (A2 d3 f) | %60
 (fe) d2 z2 | (A3 dfa) | (ag) f2 z2 | e3 (afa) | e3 (aBf) | A4{c} (B>A) | A2 z2 z2 | (f3 edc) | %68
 B2 z2 z2 | (g3 fed) | c2 z2 z2 | (a3 gfe) | (d2 g3) f | (f/e/g/e/) d2{f} (e>d) | d2 z2 z2 | %75
 (f3 e dc) | B2 z2 z2 | (g3 f ed) | c2 z2 z2 | (a3 g fe) | (d>g) (g3 f) | (e/b/g/e/) d2{f} (e>d) | %82
 d2 z2 (A/B/d/f/) | a2- (a/^g/=g/e/) (g/f/)(f/d/) | a2- (a/^g/=g/e/) (g/f/)(f/d/) | %85
 (B/4^d/4e/4g/4^a/4b/4=g/4e/4) =d2{f} (e>d) | d2 z2 (3(D/F/A/(3d/f/a/) | %87
 a2- (a/^g/=g/e/) (g/f/)(f/d/) | A2- A/(^G/=G/E/) (G/F/)(F/D/) | E (bagfe) | %90
 (3d/A/B/(3=c/^c/d/ (3^d/e/^e/(3f/=g/^g/ (a/g/=g/f/) | T=e4- e3/2d/4e/4 | d2 z2 (d/c/)(3e/d/B/ | %93
 (A4 ^G=G) | F2 z2 (3(E/G/F/(3E/G/B/) | A3 (ABc) | d2 d2 d2 | d4 z2 |] %98
V:2
 x6 | x6 | x6 | x6 | x6 | x6 | x6 | x6 | x6 | x6 | x6 | x6 | x6 | x6 | x6 | x6 | x6 | x6 | x6 | %19
 x6 | x6 | x6 | x6 | x6 | x6 | x6 | x6 | x6 | x6 | x6 | x6 | x6 | x6 | x6 | x6 | x6 | x6 | x6 | %38
 x6 | x6 | x6 | x6 | x6 | x6 | x6 | x6 | x6 | x6 | x9/4 e/4f/4e/4d/4c/4B/4A/4 x2 | x6 | x6 | x6 | %52
 x6 | x6 | x6 | x6 | x6 | x6 | x6 | x6 | x6 | x6 | x6 | x6 | x6 | x6 | x6 | x6 | x6 | x6 | x6 | %71
 x6 | x6 | x6 | x6 | x6 | x6 | x6 | x6 | x6 | x6 | x6 | x6 | x6 | x6 | x6 | x6 | x6 | x6 | x6 | %90
 x6 | x6 | x6 | x6 | x6 | x6 | x6 | x6 |] %98

